assets/2023/icons/markdown.svg

<!-- Copyright 2000-2022 JetBrains s.r.o. and contributors. Use of this source code is governed by the Apache 2.0 license. -->
<svg width="16" height="16" viewBox="0 0 16 16" fill="none" xmlns="http://www.w3.org/2000/svg">
<path fill-rule="evenodd" clip-rule="evenodd" d="M12.5929 9.9438L12.5929 4.70001L13.7929 4.70002L13.7929 9.94379L15.0763 8.66037L15.9248 9.5089L13.1929 12.2409L10.4609 9.5089L11.3095 8.66037L12.5929 9.9438Z" fill="#3574F0"/>
<path d="M0.5 4.70001H2.94558L4.65385 9.14463L4.76288 9.60155L4.85635 9.14463L6.51269 4.70001H8.98423V11.9692H7.14096V7.59732L7.17212 7.12482L5.34442 11.9692H4.08269L2.31212 7.17155L2.34327 7.59732V11.9692H0.5V4.70001Z" fill="#3574F0"/>
</svg>

<svg xmlns="http://www.w3.org/2000/svg" width="16" height="16" fill="none" viewBox="0 0 16 16"><path fill="#3574F0" fill-rule="evenodd" d="M12.593 9.944V4.7h1.2v5.244l1.283-1.284.849.849-2.732 2.732-2.732-2.732.848-.849z" clip-rule="evenodd"/><path fill="#3574F0" d="M.5 4.7h2.446l1.708 4.445.109.457.093-.457L6.513 4.7h2.471v7.27H7.141V7.596l.031-.472-1.828 4.844H4.083l-1.77-4.797.03.425v4.372H.5z"/></svg>
